X:1
T:Dies est laetitiae 2
T:André Vierendeels
T:(25/02/18)
T:Early melody
T:Dies est laetitiae 2
T:ad voces aequales
T:©
T:©
T:©
C:André Vierendeels
Z:©
%%score [ 1 [ 2 3 ] ]
L:1/8
Q:1/4=120
M:2/2
K:G
V:1 treble-8 nm="Tenor" snm="T"
V:2 bass nm="Bass 1" snm="B 1"
V:3 bass nm="Bass 2" snm="B 2"
V:1
 G4 G4 | A4 B4 | c2 B2 c2 A2 | !fermata!G6 G2 | A4 G4 | E4 F4 | G4 A4 | !fermata!G8 :| d4 d4 | %9
w: Di- es|est lae-|ti- * * ti-|ae, in|or- *|tu re-|ga- *|li,|pu- er|
w: Nam pro-|ces- sit|ho- * * di|e, de|ven- tre|vir- gi-|na- *|li||
w: |||||||li,||
 e4 d4 | B4 c4 | !fermata!d8 | d4 d4 | e4 d4 | c4 A4 | !fermata!G8 | E4 F4 | G4 E4 | D4 ^C4 | %19
w: ad- mi-|ra- bi-|lis,|to- nus|de- lec-|ta- bi-|lis,|in hu-|ma- ni-|ta- *|
w: ||||||||||
w: ||||||||||
 !fermata!D8 | G4 G4 | A4 B4 | c2 B2 c2 A2 | !fermata!B8 | A4 G4 | E4 F4 | G4 E4 | !fermata!D8 | %28
w: te,|qui in-|e- sti-|ma- * bi- lis|est|et in|ef- fa-|* bi-|lis|
w: |||||||||
w: |||||||||
 E4 D4 | E4 F4 | G4 F4 | !fermata!G8 |] %32
w: in di-|vi- ni-|ta- *|te.|
w: ||||
w: ||||
V:2
 D,4 E,4 | F,4 D,2 =F,2 | E,2 G,2 E,2 C,2 | !fermata!D,6 B,,2 | C,4 E,2 D,2 | C,4 D,2 C,2 | %6
w: Di- es|est lae- *|ti- * * ti-|ae, in|or- * *|tu re- *|
w: Nam pro-|ces- sit _|ho- * * di-|e, de|ven- * tre|vir- gi- *|
 D,4 F,4 | !fermata!D,8 :| B,4 B,4 | G,4 A,2 F,2 | G,4 E,4 | !fermata!F,8 | G,4 F,4 | E,4 F,2 A,2 | %14
w: ga- *|li,|pu- er|ad- mi- *|ra- bi-|lis,|to- nus|de lec- *|
w: na- *|li,|||||||
 G,4 F,4 | !fermata!D,8 | C,4 D,4 | D,4 C,4 | E,8 | !fermata!D,8 | E,4 B,,4 | F,4 D,4 | %22
w: ta- bi-|lis,|in hu-|ma- ni-|ta-|te,|qui in|e- sti-|
w: ||||||||
 E,4 G,2 F,2 | !fermata!D,8 | D,4 E,4 | C,4 D,2 C,2 | B,,4 C,4 | !fermata!D,8 | C,4 D,4 | E,4 C,4 | %30
w: ma- bi- lis|est|et in|ef- fa- *|* bi-|lis|in di-|vi- ni-|
w: ||||||||
 D,8 | !fermata!D,8 |] %32
w: ta-|te.|
w: ||
V:3
 G,,4 C,2 B,,2 | D,2 C,2 G,,4 | C,4 A,,4 | !fermata!G,,6 G,,2 | =F,,4 C,2 G,,2 | A,,4 D,4 | %6
w: Di- es _|est _ lae-|ti- ti-|ae, in|or- * *|tu re-|
w: Nam pro- *|ces- * sit|ho- di-|e, de|ven- * tre|vir- gi-|
 B,,4 D,4 | !fermata!G,,8 :| G,4 G,,4 | C,4 D,4 | E,4 A,,4 | !fermata!D,8 | G,2 F,E, D,4 | %13
w: ga- *|li,|pu- er|ad- mi-|ra- bi-|lis,|to- * * nus|
w: na- *|li,||||||
 A,,2 B,,C, D,4 | E,4 D,2 C,2 | !fermata!G,,8 | A,,4 D,4 | B,,4 C,4 | A,,8 | !fermata!B,,8 | %20
w: de- * * lec-|ta- bi- *|lis,|in hu-|ma- ni-|ta-|te,|
w: |||||||
 C,D,E,F, D,4 | D,4 G,2 E,2 | A,,2 B,,2 E,2 D,2 | !fermata!G,,8 | D,C,A,,B,, C,4 | A,,4 D,4 | %26
w: qui _ _ _ in|e- sti- *|ma- * bi- lis|est|et _ _ _ in|ef- fa-|
w: ||||||
 G,,4 A,,4 | !fermata!D,8 | C,4 G,,4 | C,4 A,,4 | B,,4 A,,4 | !fermata!G,,8 |] %32
w: * bi-|lis|in di-|vi- ni-|ta- *|te.|
w: ||||||

